icons/light/makefile.svg

<svg width="16" height="16" viewBox="0 0 16 16" fill="none" xmlns="http://www.w3.org/2000/svg">
<path d="M14.75 12.01L13.95 11.55C13.9804 11.4019 13.9955 11.2512 13.995 11.1C13.9992 11.0668 14.0009 11.0334 14 11C14.0015 10.8155 13.9848 10.6312 13.95 10.45L14.75 9.99C14.7785 9.9738 14.8034 9.95209 14.8234 9.92615C14.8433 9.9002 14.8579 9.87053 14.8663 9.83888C14.8747 9.80723 14.8767 9.77422 14.8722 9.7418C14.8676 9.70937 14.8567 9.67816 14.84 9.65L14.09 8.35001C14.0693 8.31197 14.038 8.28072 14 8.26V3.005C13.9992 2.74003 13.8936 2.48614 13.7062 2.29877C13.5189 2.11141 13.265 2.0058 13 2.005H2C1.73503 2.0058 1.48113 2.11141 1.29377 2.29877C1.1064 2.48614 1.00079 2.74003 1 3.005V11C1.00079 11.265 1.1064 11.5189 1.29377 11.7062C1.48113 11.8936 1.73503 11.9992 2 12H7.265L7.25 12.01C7.22155 12.0262 7.19661 12.0479 7.17664 12.0739C7.15667 12.0998 7.14207 12.1295 7.13369 12.1611C7.12531 12.1928 7.12332 12.2258 7.12784 12.2582C7.13236 12.2906 7.14329 12.3218 7.16 12.35L7.91 13.65C7.9262 13.6785 7.94791 13.7034 7.97386 13.7234C7.99981 13.7433 8.02947 13.7579 8.06112 13.7663C8.09278 13.7747 8.12578 13.7767 8.15821 13.7722C8.19064 13.7676 8.22184 13.7567 8.25 13.74L9.05 13.28C9.32987 13.5194 9.65209 13.7042 10 13.825V14.75C9.99967 14.7829 10.0059 14.8156 10.0183 14.8461C10.0308 14.8766 10.0492 14.9042 10.0725 14.9275C10.0958 14.9508 10.1235 14.9692 10.1539 14.9817C10.1844 14.9941 10.2171 15.0003 10.25 15H11.75C11.7829 15.0003 11.8156 14.9941 11.8461 14.9817C11.8765 14.9692 11.9042 14.9508 11.9275 14.9275C11.9508 14.9042 11.9692 14.8766 11.9817 14.8461C11.9941 14.8156 12.0003 14.7829 12 14.75V13.825C12.3479 13.7042 12.6701 13.5194 12.95 13.28L13.75 13.74C13.7782 13.7567 13.8094 13.7676 13.8418 13.7722C13.8742 13.7767 13.9072 13.7747 13.9389 13.7663C13.9705 13.7579 14.0002 13.7433 14.0261 13.7234C14.0521 13.7034 14.0738 13.6785 14.09 13.65L14.84 12.35C14.8567 12.3218 14.8676 12.2906 14.8722 12.2582C14.8767 12.2258 14.8747 12.1928 14.8663 12.1611C14.8579 12.1295 14.8433 12.0998 14.8234 12.0739C14.8034 12.0479 14.7785 12.0262 14.75 12.01ZM12 11.005C11.9999 11.168 11.9597 11.3286 11.8829 11.4724C11.8062 11.6163 11.6953 11.7391 11.56 11.83L11.47 11.885C11.3248 11.9604 11.1636 11.9997 11 11.9997C10.8364 11.9997 10.6752 11.9604 10.53 11.885L10.44 11.83C10.3047 11.7391 10.1938 11.6163 10.1171 11.4724C10.0403 11.3286 10.0001 11.168 10 11.005V11C9.99975 10.8362 10.0397 10.6748 10.1165 10.5301C10.1932 10.3854 10.3043 10.2617 10.44 10.17L10.53 10.115C10.6752 10.0396 10.8364 10.0003 11 10.0003C11.1636 10.0003 11.3248 10.0396 11.47 10.115L11.56 10.17C11.6957 10.2617 11.8068 10.3854 11.8835 10.5301C11.9603 10.6748 12.0002 10.8362 12 11V11.005ZM13 8.69L12.95 8.72001C12.6701 8.48063 12.3479 8.29578 12 8.175V7.25C12.0003 7.21708 11.9941 7.18442 11.9817 7.15394C11.9692 7.12346 11.9508 7.09576 11.9275 7.07248C11.9042 7.0492 11.8765 7.0308 11.8461 7.01835C11.8156 7.00591 11.7829 6.99967 11.75 7H10.25C10.2171 6.99967 10.1844 7.00591 10.1539 7.01835C10.1235 7.0308 10.0958 7.0492 10.0725 7.07248C10.0492 7.09576 10.0308 7.12346 10.0183 7.15394C10.0059 7.18442 9.99967 7.21708 10 7.25V8.175C9.65209 8.29578 9.32987 8.48063 9.05 8.72001L8.25 8.26C8.22184 8.2433 8.19064 8.23236 8.15821 8.22785C8.12578 8.22333 8.09278 8.22532 8.06112 8.2337C8.02947 8.24207 7.99981 8.25667 7.97386 8.27664C7.94791 8.29661 7.9262 8.32155 7.91 8.35001L7.16 9.65C7.14329 9.67816 7.13236 9.70937 7.12784 9.7418C7.12332 9.77422 7.12531 9.80723 7.13369 9.83888C7.14207 9.87053 7.15667 9.9002 7.17664 9.92615C7.19661 9.95209 7.22155 9.9738 7.25 9.99L8.05 10.45C8.01525 10.6312 7.9985 10.8155 8 11V11.005L2 11V5.005H13V8.69Z" fill="#424242"/>
</svg>

<svg xmlns="http://www.w3.org/2000/svg" width="16" height="16" fill="none" xmlns:v="https://vecta.io/nano"><path d="M14.75 12.01l-.8-.46a2.2 2.2 0 0 0 .045-.45c.004-.033.006-.067.005-.1.002-.184-.015-.369-.05-.55l.8-.46c.028-.016.053-.038.073-.064s.035-.056.043-.087.01-.065.006-.097-.015-.064-.032-.092l-.75-1.3c-.021-.038-.052-.069-.09-.09V3.005c-.001-.265-.106-.519-.294-.706s-.441-.293-.706-.294H2c-.265.001-.519.106-.706.294s-.293.441-.294.706V11c.001.265.106.519.294.706s.441.293.706.294h5.265l-.015.01c-.028.016-.053.038-.073.064s-.035.056-.043.087-.01.065-.006.097.015.064.032.092l.75 1.3c.016.028.038.053.064.073s.056.034.087.043.065.01.097.006.064-.015.092-.032l.8-.46a2.95 2.95 0 0 0 .95.545v.925c0 .033.006.066.018.096s.031.058.054.081a.25.25 0 0 0 .178.072h1.5a.25.25 0 0 0 .178-.072c.023-.023.042-.051.054-.081A.25.25 0 0 0 12 14.75v-.925a2.95 2.95 0 0 0 .95-.545l.8.46c.028.017.059.028.092.032s.065.002.097-.006.061-.023.087-.043.048-.045.064-.073l.75-1.3c.017-.028.028-.059.032-.092s.003-.065-.006-.097-.023-.061-.043-.087-.045-.048-.073-.064zM12 11.005c0 .163-.04.324-.117.467s-.188.267-.323.358l-.09.055a1.02 1.02 0 0 1-.94 0l-.09-.055c-.135-.091-.246-.214-.323-.358S10 11.168 10 11.005V11a1 1 0 0 1 .44-.83l.09-.055a1.02 1.02 0 0 1 .94 0l.09.055A1 1 0 0 1 12 11v.005zm1-2.315l-.05.03a2.95 2.95 0 0 0-.95-.545V7.25a.25.25 0 0 0-.018-.096c-.012-.03-.031-.058-.054-.081s-.051-.042-.081-.054S11.783 7 11.75 7h-1.5c-.033 0-.066.006-.096.018s-.058.031-.081.054-.042.051-.054.081S10 7.217 10 7.25v.925a2.95 2.95 0 0 0-.95.545l-.8-.46c-.028-.017-.059-.028-.092-.032s-.065-.003-.097.006-.061.023-.087.043-.048.045-.064.073l-.75 1.3c-.017.028-.028.059-.032.092s-.003.065.006.097.023.061.043.087.045.048.073.064l.8.46A2.8 2.8 0 0 0 8 11v.005L2 11V5.005h11V8.69z" fill="#424242"/></svg>
